!!!COM: Vivaldi, Antonio Lucio
!!!CDT: 1678/03/04-1741/08/28
!!!OPR: 12 Sonatas for Violin and Basso continuo
!!!OTL: Sonata in F minor, op. @{OPS}, no. @{ONM} (@{SCT})
!!!OPS: 2
!!!ONM: 10
!!!OMV: 1. Preludio
!!!SCT: RV 21
!!!SCA: Antonio Vivaldi: Thematisch-systematisches Verzeichnis seiner Werke (Ryom-Verzeichnis)
!!!OMD: Largo
!!!key: f
**kern	**fb	**kern
*part2	*	*part1
*staff2	*	*staff1
*ICklav	*	*ICstr
*Icemba	*	*Ivioln
*I"Basso continuo	*	*I"Violino
*I'bc	*	*I'v
*>[A,A,B,B]	*>[A,A,B,B]	*>[A,A,B,B]
*>norep[A,B]	*>norep[A,B]	*>norep[A,B]
*>A	*>A	*>A
*clefF4	*	*clefG2
*k[b-e-a-d-]	*	*k[b-e-a-d-]
*f:	*	*f:
*M3/4	*	*M3/4
*MM60	*	*MM60
=1	=1	=1
4F\	.	4ff\
2E-y\	6	4ccc\
.	.	4cc\
=2	=2	=2
2D-y\	5	4ff\
.	.	4f/
4F\	6	8r
.	.	16r
.	.	16dd-y\
=3	=3	=3
4G\	n	(8.en/L
.	.	16B-y/k)
4C/	n	(8.e/
.	.	16dd-y/k)
4En\	6 5	(8.cc/
.	.	16g/Jk)
=4	=4	=4
2F\	.	(8.a-y/L
.	.	16en/Jk)
.	.	4f/
4C/	6	8r
.	.	16r
.	.	16aa-y\
=5	=5	=5
4Dn\	6	(8.bn\L
.	.	16f\k)
4GG/	n	(8.b\
.	.	16aa-y\k)
4BBn/	6	(8.gg\
.	.	16ddn\Jk)
=6	=6	=6
2C/	.	(8.ee-y\L
.	.	16bn\Jk)
.	.	4cc\
4E-y\	.	8r
.	.	16r
.	.	16g/
!!LO:LB:g=original
=7	=7	=7
2.F\	.	(8.a-y\L
.	.	16f\k)
.	.	(8.dd-y\
.	.	16ff\k)
.	.	(8.aa-y\
.	.	16cc\Jk)
=8	=8	=8
2G\	n	4.bn\
.	.	8g/
4C/	.	(8.ee-y\L
.	.	16cc\Jk)
=9	=9	=9
4F\	6nr 5	(8.ddn\L
.	.	16an\Jk)
4G\	5nr 4	4.bn\t
4GG/	n	.
.	.	8cc\
=10	=10	=10
2.C/	.	2.cc\
=11:|!|:	=11:|!|:	=11:|!|:
*>B	*>B	*>B
4c\	.	4cc\
2B-y\	6	4gg\
.	.	4g/
=12	=12	=12
2A-y\	5	4cc\
.	.	4c/
4E-y\	6	8r
.	.	16r
.	.	16cc\
=13	=13	=13
2F\	6nr	(8.ddn\L
.	.	16ee-y\k)
.	.	(8.ff\
.	.	16aa-y\k)
4BBn/	6	(8.gg\
.	.	16dd\Jk)
=14	=14	=14
2C/	.	(8.ee-y\L
.	.	16bn\Jk)
.	.	4cc\
4BB-X/	4nr 2	8r
.	.	16r
.	.	16een\
!!LO:LB:g=original
=15	=15	=15
2.AA-y/	6	(8.ff\L
.	.	16gg\k)
.	.	(8.ff\
.	.	16cc\k)
.	.	(8.aa-y\
.	.	16cc\Jk)
=16	=16	=16
2.BB-y/	5	&{8.dd-y\L
.	.	16cc\Jk&)
.	.	4b-y\
.	.	8r
.	.	16r
.	.	16b-y\
=17	=17	=17
2.B-y\	6	(8.gg\L
.	.	16aa-y\k)
.	.	(8.gg\
.	.	16dd-y\k)
.	.	(8.bb-y\
.	.	16ff\Jk)
=18	=18	=18
2.c\	n	(8.een\L
.	.	16ff\k)
.	.	(8.gg\
.	.	16aa-y\k)
.	.	(8.bb-y\
.	.	16ccc\Jk)
=19	=19	=19
2.d-y\	7	(8.ff\L
.	.	16gg\k)
.	.	(8.aa-y\
.	.	16bb-y\k)
.	.	(8.ccc\
.	.	16ddd-y\Jk)
=20	=20	=20
4En\	6 5	4.b-y\
4G\	6nr	.
.	.	8een\
4E\	6	(8.gg\L
.	.	16cc\Jk)
=21	=21	=21
4C/	7 n	4.b-y\
4En\	5	.
.	.	8een\
4C/	n	(8.gg\L
.	.	16cc\Jk)
!!LO:LB:g=original
=22	=22	=22
4F\	.	(8.aa-y\L
.	.	16ff\Jk)
4c\	4	4.een\t
4C/	n	.
.	.	8ff\
=23	=23	=23
2F\	.	(8.ff\L
.	.	16ee-X\k)
.	.	(8.dd-y\
.	.	16cc\k)
4G\	6nr	(8.b-y\
.	.	16gg\Jk)
=24	=24	=24
2.C/	n	(8.een\L
.	.	16ff\k)
.	.	(8.gg\
.	.	16aa-y\k)
.	.	(8.bb-y\
.	.	16ccc\Jk)
=25	=25	=25
2.BB-y/	.	4.dd-y\
.	.	8cc\
.	.	(8.dd-y\L
.	.	16b-y\Jk)
=26	=26	=26
2AA-y/	6	4cc\
.	.	8.f\L
.	.	16aa-y\k
4BB-y/	6	(8.gg\
.	5	16ff\Jk)
=27	=27	=27
2C/	n	(8.een\L
.	.	16ddn\k)
.	.	(8.cc\
.	.	16dd-X\k)
4En\	6	(8.cc\
.	.	16b-y\Jk)
=28	=28	=28
4F\	.	(8.a-y/L
.	.	16f/Jk)
4c\	4	4.en/t
4C/	n	.
.	.	8f/
=29	=29	=29
2.F\;	.	2.f/;
=:|!	=:|!	=:|!
*-	*-	*-
!!!SMS: RV 21 / Estienne Roger, Amsterdam [facs.]
!!!ENC: Fran Bennion
!!!END: 2004/12/15
!!!ONB: Converted from MuseData with musedata2hum on Sat May 11 12:07:53 2024
!!!YEM: (C) 2004, 2004 Center for Computer Assisted Research in the Humanities.
!!!system-decoration: [(s1,s2)]
!!!URL-info: https://wiki.ccarh.org/wiki/MuseData:_Antonio_Vivaldi#Op._2:_Sonate_a_violino_e_basso_per_il_cembalo
!!!URL-pdf: https://pdf.musedata.org/vivaldi-op02-no10.pdf#page=1 MuseData edition
!!!URL-pdf: http://conquest.imslp.info/files/imglnks/usimg/b/b7/IMSLP99075-PMLP183164-Vivaldi_-_Sonatas_Op2.pdf#page=36 Estienne Roger Amsterdam: Estienne Roger, No.2, n.d.[1711].
!!!URL-youtube: https://www.youtube.com/watch?v=SiijZmW9jKM&t=4707s L'Arte dell'Arco
!!!title: @{OTL}, mov. @{OMV}
!!!filter-chint: chint -mid
!!!EEV: 2024/05/11
!!!source-file: https://bitbucket.org/musedata/vivaldi/src/master/roger/op2/no10/stage2/01/01
!!!source-file: https://bitbucket.org/musedata/vivaldi/src/master/roger/op2/no10/stage2/01/02
